X: 02118
T: SANELLA'S SWINGER
C: Bob McQuillen Oct'74
B: Bob's Note Book 1&2 #118
%R: reel, march
Z: 2019 John Chambers <jc:trillian.mit.edu>
M: C
L: 1/8
K: Em
Bc \
| dcBA GFGA | B2e2 e2ef | g2e2 edeg | f2d2 d2GA |\
| BcBA GFGA | Beed e2ef | g2e2 fed2 | e4-  e2  :|
|: GA \
| B2e2 e2ge | d2de d2GA | BGBd edBG | B2A2 A2GA |\
| B2e2 e2ge | agab a2ga | bfbf bagf | g2e2 e2  :|
%%begintext align
%% Happy Memories, Ted.
%%endtext

%%sep 1 1 500

%%sep 1 1 500

